X: 1
T: 2nd part Laughing Minstrel
M: 4/4
L: 1/8
R: hornpipe
K: Edor
(3A,B,C|:DCDE =FEFA|^A=A^Ad cdeg |
fdge afed|cedB A2 AG|FG (3AGF GA BA|
^GB ed cbag|(3fga fdBgec|1d2dc d2 (3A,B,C:|2d2dc dAde ||
|:=fefd A2d=c|^A=A^AG D2 G=A|
^A=A^AG E=C=cA|=AG=FA =c2 (3cde|
=fefd A2 ^fg|ag fag2 ag| (3fga fd Bg ec|1d2dc dAde:|2d2dc d4|]
